archdroid-icon-theme/Archdroid-Yellow/apps/scalable/system-software-update.svg

<svg fill="#FFEB3B" height="48" viewBox="0 0 44 36" width="44" xmlns="http://www.w3.org/2000/svg"><path d="m22 26 8-8h-6v-18h-4v18h-6zm18-26h-12v3.97h12v28.06h-36v-28.06h12v-3.97h-12c-2.21 0-4 1.79-4 4v28c0 2.21 1.79 4 4 4h36c2.21 0 4-1.79 4-4v-28c0-2.21-1.79-4-4-4z" fill="#FFEB3B"/></svg>

<svg fill="#FFEB3B" height="48" version="1.1" viewBox="0 0 44 36" width="44" xmlns="http://www.w3.org/2000/svg"><path d="m22 26l8-8-6 0 0-18-4 0 0 18-6 0 8 8zM40 0L28 0 28 3.97 40 3.97 40 32.03l-36 0 0-28.06 12 0L16 0l-12 0C1.79 0 0 1.79 0 4l0 28c0 2.21 1.79 4 4 4l36 0c2.21 0 4-1.79 4-4L44 4C44 1.79 42.21 0 40 0Z"/></svg>
